X: 216
T: Fiddle-de-dee.
O: English.
%R: jig
B: "The Everyday Song Book", 1927
F: http://www.library.pitt.edu/happybirthday/pdf/The_Everyday_Song_Book.pdf
Z: 2016 John Chambers <jc:trillian.mit.edu>
M: 6/8
L: 1/8
K: F
%%continueall
% - - - - - - - - - - - - - - - - - - - - - - - - - - - - -
|: A F F F2 z | A F F F2 F | G2 G c c c | A2 F "^Fine."F2 :|
w: 1.~Fid-dle-de-dee, Fid-dle-de-dee, The fly has mar-ried the bum-ble-bee.
w: 2.~Fid-dle-de-dee, Fid-dle-de-dee, The fly has mar-ried the bum-ble-bee.
w: 3.~Fid-dle-de-dee, Fid-dle-de-dee, The fly has mar-ried the bum-ble-bee.
w: 4.~Fid-dle-de-dee, Fid-dle-de-dee, The fly has mar-ried the bum-ble-bee.
w: 5.~Fid-dle-de-dee, Fid-dle-de-dee, The fly has mar-ried the bum-ble-bee.
F/-F/ | d2 d d2 d/ d/ | d- d c c2 c | B- B B B2 B | B- B A A3 |]
w: 1.~Says the fly, says he, "Will you mar-*ry me? And live* with me, Sweet bum-*ble bee?"
w: 2.~Says the bee, says she, "I'll live un-der your wing And you'll nev-er know I car-ry a sting."
w: 3.~So, when Par-son Bee-tle had joined* the pair, They both* went out To take* the air.
w: 4.~And the flies did buzz, And the bells* did ring\-\- Did ev-er you hear So merr-ry a thing?
w: 5.~And* then to think, That of all* the flies, The bum-*ble bee Should car-ry the prize!
% - - - - - - - - - - - - - - - - - - - - - - - - - - - - -

%%sep 1 1 500
%%sep 1 1 500

